icons/svg/skimap/piste_downhill.svg

<?xml version="1.0" encoding="UTF-8" standalone="no"?>
<svg
   xmlns:dc="http://purl.org/dc/elements/1.1/"
   xmlns:cc="http://creativecommons.org/ns#"
   xmlns:rdf="http://www.w3.org/1999/02/22-rdf-syntax-ns#"
   xmlns:svg="http://www.w3.org/2000/svg"
   xmlns="http://www.w3.org/2000/svg"
   xmlns:sodipodi="http://sodipodi.sourceforge.net/DTD/sodipodi-0.dtd"
   xmlns:inkscape="http://www.inkscape.org/namespaces/inkscape"
   width="32"
   height="32"
   id="svg2"
   version="1.1"
   inkscape:version="0.48.4 r9939"
   sodipodi:docname="piste_downhill.svg">
  <defs
     id="defs13">
    <inkscape:path-effect
       effect="gears"
       id="path-effect3774"
       is_visible="true"
       teeth="6"
       phi="-1.2" />
    <inkscape:path-effect
       effect="bend_path"
       id="path-effect3772"
       is_visible="false"
       bendpath="m 95.790098,316.51174 c 144.429032,-206.42506 223.313032,-11.7428 339.548092,0"
       prop_scale="1.19"
       scale_y_rel="false"
       vertical="false"
       bendpath-nodetypes="cc" />
  </defs>
  <sodipodi:namedview
     pagecolor="#ffffff"
     bordercolor="#666666"
     borderopacity="1"
     objecttolerance="10"
     gridtolerance="10"
     guidetolerance="10"
     inkscape:pageopacity="0"
     inkscape:pageshadow="2"
     inkscape:window-width="1920"
     inkscape:window-height="1004"
     id="namedview11"
     showgrid="false"
     inkscape:zoom="9.2070175"
     inkscape:cx="7.6258907"
     inkscape:cy="20.202625"
     inkscape:window-x="1680"
     inkscape:window-y="0"
     inkscape:window-maximized="1"
     inkscape:current-layer="svg2"
     inkscape:snap-object-midpoints="true"
     inkscape:snap-page="true" />
  <metadata
     id="metadata2975">image/svg+xmlen<rdf:RDF>
  <cc:Work
     rdf:about="">
    <dc:format>image/svg+xml</dc:format>
    <dc:type
       rdf:resource="http://purl.org/dc/dcmitype/StillImage" />
    <dc:title />
  </cc:Work>
</rdf:RDF>
</metadata>
  <g
     transform="matrix(0.0551864,0,0,0.0551864,0,-0.0555723)"
     id="g1327">
    <path
       inkscape:connector-curvature="0"
       d="M 66.275,1.768 C 24.94,1.768 1.704,23.139 1.704,66.804 l 0,450.123 c 0,40.844 20.895,62.229 62.192,62.229 l 452.024,0 c 41.307,0 62.229,-20.315 62.229,-62.229 l 0,-450.123 c 0,-42.601 -20.922,-65.036 -63.521,-65.036 -0.004,0 -448.495,-0.143 -448.353,0 z"
       style="fill:#111111;stroke:#eeeeee;stroke-width:3.40799999"
       id="path1329" />
  </g>
  <path
     inkscape:connector-curvature="0"
     style="font-size:40px;font-style:normal;font-variant:normal;font-weight:normal;font-stretch:normal;text-align:start;line-height:125%;writing-mode:lr-tb;text-anchor:start;fill:#ffffff;fill-opacity:1;stroke:none;font-family:NPSPICT3;-inkscape-font-specification:NPSPICT3"
     d="m 21.026076,13.480349 c 0.36641,7e-6 0.677293,-0.127663 0.93265,-0.38301 0.255323,-0.255332 0.382993,-0.566215 0.383011,-0.932651 -1.8e-5,-0.366817 -0.127688,-0.6779 -0.383011,-0.93325 -0.255357,-0.25533 -0.56624,-0.383 -0.93265,-0.38301 -0.353656,10e-6 -0.661442,0.12768 -0.92336,0.38301 -0.261948,0.25535 -0.392915,0.566433 -0.3929,0.93325 -1.5e-5,0.366436 0.130952,0.677319 0.3929,0.932651 0.261918,0.255347 0.569704,0.383017 0.92336,0.38301 z m 1.759762,9.022112 -0.788922,-0.600276 c -0.157057,0.261732 -0.454107,0.460482 -0.755384,0.460483 -0.143869,-1e-6 -0.285023,-0.03876 -0.416074,-0.117081 L 6.960334,14.056664 6.3780108,15.046192 20.205334,23.177514 c 0.430174,0.242679 0.552175,0.213965 1.045116,0.227552 0.510663,-2e-6 1.273238,-0.470643 1.535388,-0.902605 z M 11.166115,16.171009 c 0.07871,0.01319 0.189999,-0.0064 0.33386,-0.05874 l 3.79114,-1.237139 c 0.366416,-0.131061 0.56931,-0.334054 0.60868,-0.60898 0.03935,-0.274914 0.05243,-0.425561 0.03926,-0.45194 l -0.569421,-2.062501 2.27828,1.35522 0.27512,1.983981 c 0.05233,0.353645 0.20278,0.602392 0.451341,0.74624 l 2.965781,1.72864 c 0.104676,0.06554 0.20937,0.0983 0.314079,0.0983 0.196583,4e-6 0.360317,-0.06883 0.4912,-0.206489 0.13085,-0.137657 0.196283,-0.297993 0.1963,-0.481011 -1.7e-5,-0.262129 -0.117697,-0.458529 -0.35304,-0.5892 l -2.3574,-1.375001 -0.25534,-3.5352 c -0.03918,-0.47151 -0.241968,-0.811963 -0.608381,-1.02136 l -3.39794,-2.0037601 c -0.31449,-0.1830008 -0.641956,-0.2745075 -0.9824,-0.2745206 -0.615382,1.31e-5 -1.093295,0.2487597 -1.43374,0.7462406 -0.196209,0.301305 -0.294309,0.628571 -0.294301,0.9818 -8e-6,0.1570511 0.01957,0.3142911 0.05874,0.4717201 l 0.92306,3.004741 -2.769181,0.8841 c -0.392807,0.117886 -0.61538,0.405993 -0.667721,0.86432 -0.07873,0.615379 0.241948,0.962225 0.962024,1.040539 z"
     id="flowRoot3192"
     sodipodi:nodetypes="cccccccccccccccccccccccccccccccccccccccccccc" />
</svg>

<svg width="32" height="32" viewBox="0 0 32 32" fill="none" xmlns="http://www.w3.org/2000/svg">
<g clip-path="url(#clip0)">
<path d="M3.65747 0.0419596C1.37634 0.0419596 0.0940247 1.22135 0.0940247 3.63106V28.4717C0.0940247 30.7258 1.24714 31.9059 3.52618 31.9059H28.4718C30.7513 31.9059 31.9059 30.7848 31.9059 28.4717V3.63106C31.9059 1.28007 30.7513 0.0419596 28.4005 0.0419596C28.4002 0.0419596 3.64963 0.0340679 3.65747 0.0419596V0.0419596Z" fill="#111111" stroke="#EEEEEE" stroke-width="0.188075"/>
<path d="M21.0261 13.4803C21.3925 13.4803 21.7034 13.3526 21.9587 13.0973C22.2141 12.8419 22.3417 12.5311 22.3417 12.1646C22.3417 11.7978 22.2141 11.4867 21.9587 11.2314C21.7034 10.976 21.3925 10.8484 21.0261 10.8484C20.6724 10.8484 20.3646 10.976 20.1027 11.2314C19.8408 11.4867 19.7098 11.7978 19.7098 12.1646C19.7098 12.5311 19.8408 12.8419 20.1027 13.0973C20.3646 13.3526 20.6724 13.4803 21.0261 13.4803ZM22.7858 22.5024L21.9969 21.9021C21.8399 22.1639 21.5428 22.3626 21.2415 22.3626C21.0977 22.3626 20.9565 22.3238 20.8255 22.2455L6.96034 14.0566L6.37802 15.0461L20.2053 23.1775C20.6355 23.4201 20.7575 23.3914 21.2505 23.405C21.7611 23.405 22.5237 22.9344 22.7858 22.5024V22.5024ZM11.1661 16.171C11.2448 16.1841 11.3561 16.1646 11.5 16.1122L15.2911 14.8751C15.6575 14.744 15.8604 14.541 15.8998 14.2661C15.9392 13.9912 15.9522 13.8405 15.9391 13.8142L15.3696 11.7517L17.6479 13.1069L17.923 15.0909C17.9754 15.4445 18.1258 15.6932 18.3744 15.8371L21.3402 17.5657C21.4448 17.6313 21.5495 17.664 21.6542 17.664C21.8508 17.664 22.0146 17.5952 22.1454 17.4575C22.2763 17.3199 22.3417 17.1595 22.3417 16.9765C22.3417 16.7144 22.224 16.518 21.9887 16.3873L19.6313 15.0123L19.376 11.4771C19.3368 11.0056 19.134 10.6652 18.7676 10.4558L15.3696 8.45201C15.0552 8.26901 14.7277 8.1775 14.3872 8.17749C13.7719 8.1775 13.2939 8.42625 12.9535 8.92373C12.7573 9.22504 12.6592 9.5523 12.6592 9.90553C12.6592 10.0626 12.6788 10.2198 12.7179 10.3773L13.641 13.382L10.8718 14.2661C10.479 14.384 10.2564 14.6721 10.2041 15.1304C10.1254 15.7458 10.446 16.0926 11.1661 16.171V16.171Z" fill="white"/>
</g>
<defs>
<clipPath id="clip0">
<path d="M0 0H32V32H0V0Z" fill="white"/>
</clipPath>
</defs>
</svg>
